X:1
T:Title
%%score 1 2
L:1/8
Q:1/4=100
M:4/4
K:D
V:1 treble nm="Grand Piano, Soprano"
V:2 bass nm="Choir Pad, Bass"
V:1
 [FA]>[FA] [FA]2 [DF]2 D2 | [DF]2 [FA]4 [Fd]2 | [Fd]>[Fd] [Gd]2 [GB]2 G2 | [GB]2 [FA]6 | %4
w: By~John~Jackson~Hood * * * *||||
 [FA]>[FA] [FA]2 [DF]2 D2 | [DF]2 [FA]4 [Fd]2 | [Fd]>[Fd] [Ec]2 [EA]2 [E^G]2 | [DB]2 [CA]6 | %8
w: ||||
 z2 [Gc]2- [Gc][Gc] [GB]2 | [Gc]2 [Fd]4 [FA]2- | [FA]2 [EG]2- [EG][DF] [CE]2 | %11
w: |||
 [EG]2 [DF]2- [DF][EG] [FA]2- | [FA]2 [Gc]2- [Gc][Gc] [GB]2 | [Gc]2 [Fd]4 [FA]2 | %14
w: |||
 [DF]2 [FA]2- [FA][EG] [DF]2 | [CE]2 D6- | D2 z2 z4 |] %17
w: |||
V:2
 [D,D]>[D,D] [D,D]2 [D,A,]2 [D,F,]2 | [D,A,]2 [D,D]4 [D,A,]2 | %2
 [D,A,]>[D,A,] [G,B,]2 [G,D]2 [G,B,]2 | [G,D]2 [D,D]6 | [D,D]>[D,D] [D,D]2 [D,A,]2 [D,F,]2 | %5
 [D,A,]2 [D,D]4 [D,A,]2 | [D,A,]>[D,A,] [E,A,]2 [E,C]2 [E,B,]2 | [E,^G,]2 [A,,A,]6 | %8
 z2 [A,E]2- [A,E][A,E] [A,E]2 | [A,E]2 [D,D]4 [D,D]2- | [D,D]2 [A,C]2- [A,C]A, [A,,A,]2 | %11
 [A,,A,]2 [D,A,]2- [D,A,][D,A,] [D,D]2- | [D,D]2 [A,E]2- [A,E][A,E] [A,E]2 | [A,E]2 [D,D]4 [D,D]2 | %14
 [D,A,]2 [A,,A,]2- [A,,A,][A,,A,] [A,,A,]2 | [A,,A,]2 [D,F,]6- | [D,F,]2 z2 z4 |] %17

